icons/svg/seamark/anchor_berth.svg

<?xml version="1.0" encoding="UTF-8" standalone="no"?>
<svg
   xmlns:dc="http://purl.org/dc/elements/1.1/"
   xmlns:cc="http://creativecommons.org/ns#"
   xmlns:rdf="http://www.w3.org/1999/02/22-rdf-syntax-ns#"
   xmlns:svg="http://www.w3.org/2000/svg"
   xmlns="http://www.w3.org/2000/svg"
   xmlns:sodipodi="http://sodipodi.sourceforge.net/DTD/sodipodi-0.dtd"
   xmlns:inkscape="http://www.inkscape.org/namespaces/inkscape"
   width="580"
   height="580"
   id="svg2"
   version="1.1"
   inkscape:version="0.48.4 r9939"
   sodipodi:docname="anchor_berth.svg">
  <defs
     id="defs13">
    <inkscape:path-effect
       effect="gears"
       id="path-effect3774"
       is_visible="true"
       teeth="6"
       phi="-1.2" />
    <inkscape:path-effect
       effect="bend_path"
       id="path-effect3772"
       is_visible="false"
       bendpath="m 95.790098,316.51174 c 144.429032,-206.42506 223.313032,-11.7428 339.548092,0"
       prop_scale="1.19"
       scale_y_rel="false"
       vertical="false"
       bendpath-nodetypes="cc" />
  </defs>
  <sodipodi:namedview
     pagecolor="#ffffff"
     bordercolor="#666666"
     borderopacity="1"
     objecttolerance="10"
     gridtolerance="10"
     guidetolerance="10"
     inkscape:pageopacity="0"
     inkscape:pageshadow="2"
     inkscape:window-width="1920"
     inkscape:window-height="1004"
     id="namedview11"
     showgrid="false"
     inkscape:zoom="0.5754386"
     inkscape:cx="1.0749958"
     inkscape:cy="388.94728"
     inkscape:window-x="1680"
     inkscape:window-y="0"
     inkscape:window-maximized="1"
     inkscape:current-layer="svg2" />
  <metadata
     id="metadata2975">image/svg+xmlen<rdf:RDF>
  <cc:Work
     rdf:about="">
    <dc:format>image/svg+xml</dc:format>
    <dc:type
       rdf:resource="http://purl.org/dc/dcmitype/StillImage" />
    <dc:title />
  </cc:Work>
</rdf:RDF>
</metadata>
  <path
     style="font-size:medium;font-style:normal;font-variant:normal;font-weight:normal;font-stretch:normal;text-indent:0;text-align:start;text-decoration:none;line-height:normal;letter-spacing:normal;word-spacing:normal;text-transform:none;direction:ltr;block-progression:tb;writing-mode:lr-tb;text-anchor:start;baseline-shift:baseline;opacity:0.83582093;color:#000000;fill:#8a4a8a;fill-opacity:1;fill-rule:nonzero;stroke:none;stroke-width:1;marker:none;visibility:visible;display:inline;overflow:visible;enable-background:accumulate;font-family:Sans;-inkscape-font-specification:Sans"
     d="m 289.96875,111.125 c -27.35985,0 -49.78125,22.4526 -49.78125,49.8125 0,18.31103 10.0539,34.40899 24.90625,43.0625 l 0,5.65625 -37.375,0 0,24.90625 39.375,0 c -31.45107,9.77274 -54.4375,39.21221 -54.4375,73.78125 0,33.82382 22.0282,62.67777 52.4375,73.0625 l 0,25.3125 c -30.19224,-2.13304 -63.49722,-23.43755 -79.28125,-60.15625 12.51472,0.68093 24.78125,-0.28125 24.78125,-0.28125 0,0 -24.0815,-36.36122 -57.9375,-45.6875 -21.14287,18.26655 -24.53125,70.0625 -24.53125,70.0625 0,0 7.95765,-3.93925 17.59375,-11.28125 16.26871,46.57076 58.67568,68.90153 109.9375,80.15625 22.01449,4.83124 34.3125,29.34375 34.3125,29.34375 0,0 12.36054,-24.51252 34.375,-29.34375 C 375.34705,428.3333 417.55161,406.33524 434,360.0625 c 9.86638,7.51872 17.875,10.59375 17.875,10.59375 0,-14.94197 -1.70269,-45.26737 -23.34375,-70.65625 -33.85589,9.32628 -59.15625,46.28125 -59.15625,46.28125 0,0 12.2707,0.96091 24.78125,0.28125 -15.78631,36.71085 -49.06134,58.02347 -79.25,60.15625 l 0,-25.375 c 30.29151,-10.45092 52.1875,-39.26057 52.1875,-73 0,-34.56939 -22.98594,-64.00881 -54.4375,-73.78125 l 39.59375,0 0,-24.90625 -37.34375,0 0,-5.65625 c 14.84358,-8.65576 24.90625,-24.75804 24.90625,-43.0625 0,-27.35991 -22.48382,-49.8125 -49.84375,-49.8125 z m 0,24.90625 c 13.90126,0 24.9375,11.00507 24.9375,24.90625 0,13.90118 -11.03624,24.90625 -24.9375,24.90625 -13.90113,0 -24.875,-11.00507 -24.875,-24.90625 0,-13.90118 10.97387,-24.90625 24.875,-24.90625 z M 289.87505,257.25 c 28.36746,0 51.09375,22.72629 51.09375,51.09375 0,28.36747 -22.72629,51.09375 -51.09375,51.09375 -28.36747,0 -51.0625,-22.72628 -51.0625,-51.09375 0,-28.36746 22.69503,-51.09375 51.0625,-51.09375 z"
     id="circle3"
     inkscape:connector-curvature="0" />
</svg>

<svg width="580" height="580" viewBox="0 0 580 580" fill="none" xmlns="http://www.w3.org/2000/svg">
<path opacity="0.835821" d="M289.969 111.125C262.609 111.125 240.188 133.578 240.188 160.938C240.188 179.249 250.241 195.346 265.094 204V209.656H227.719V234.562H267.094C235.643 244.335 212.656 273.775 212.656 308.344C212.656 342.168 234.684 371.022 265.094 381.406V406.719C234.902 404.586 201.597 383.281 185.812 346.562C198.327 347.243 210.594 346.281 210.594 346.281C210.594 346.281 186.512 309.92 152.656 300.594C131.513 318.86 128.125 370.656 128.125 370.656C128.125 370.656 136.083 366.717 145.719 359.375C161.987 405.946 204.394 428.277 255.656 439.531C277.671 444.362 289.969 468.875 289.969 468.875C289.969 468.875 302.329 444.362 324.344 439.531C375.347 428.333 417.552 406.335 434 360.062C443.866 367.581 451.875 370.656 451.875 370.656C451.875 355.714 450.172 325.389 428.531 300C394.675 309.326 369.375 346.281 369.375 346.281C369.375 346.281 381.646 347.242 394.156 346.562C378.37 383.273 345.095 404.586 314.906 406.719V381.344C345.198 370.893 367.094 342.083 367.094 308.344C367.094 273.774 344.108 244.335 312.656 234.562H352.25V209.656H314.906V204C329.75 195.344 339.812 179.242 339.812 160.938C339.812 133.578 317.329 111.125 289.969 111.125ZM289.969 136.031C303.87 136.031 314.906 147.036 314.906 160.938C314.906 174.839 303.87 185.844 289.969 185.844C276.068 185.844 265.094 174.839 265.094 160.938C265.094 147.036 276.068 136.031 289.969 136.031ZM289.875 257.25C318.243 257.25 340.969 279.976 340.969 308.344C340.969 336.711 318.243 359.438 289.875 359.438C261.508 359.438 238.813 336.711 238.813 308.344C238.813 279.976 261.508 257.25 289.875 257.25Z" fill="#8A4A8A"/>
</svg>
